public/FDM.svg

<svg viewBox="73.254 123 489.974 232.7" width="489.974" height="232.7">
  <g>
    <path d="M 107.254 248.7 L 175.354 248.7 L 175.354 218.7 L 73.254 218.7 L 73.254 355.7 L 107.254 355.7 L 107.254 307.3 L 166.154 307.3 L 166.154 277.7 L 107.254 277.7 L 107.254 248.7 Z M 183.554 218.7 L 183.554 355.7 L 238.754 355.7 C 281.654 355.7 312.654 327.5 312.654 286.8 C 312.654 246.7 281.654 218.7 238.754 218.7 L 183.554 218.7 L 183.554 218.7 Z M 217.554 325.1 L 217.554 249.3 L 238.654 249.3 C 260.754 249.3 277.954 265.6 277.954 286.8 C 277.954 308.6 260.854 325.1 238.654 325.1 L 217.554 325.1 L 217.554 325.1 Z M 467.454 218.7 L 442.154 218.7 L 393.654 291.8 L 344.854 218.7 L 319.654 218.7 L 319.654 355.7 L 353.654 355.7 L 353.454 286.6 L 384.054 333.9 L 384.054 334.1 L 402.954 334.1 L 402.954 333.9 L 433.354 287 L 433.354 355.7 L 467.354 355.7 L 467.454 218.7 Z" style="fill: rgb(255, 255, 255);"></path>
    <path d="M 485.054 123.5 L 514.054 163.5 C 514.254 163.8 514.654 163.9 515.054 163.8 L 562.054 148.5 C 562.554 148.3 563.054 148.6 563.154 149.1 C 563.254 149.4 563.154 149.7 563.054 149.9 L 534.054 189.9 C 533.854 190.2 533.854 190.6 534.054 190.9 L 563.054 230.9 C 563.354 231.3 563.254 231.9 562.854 232.1 C 562.654 232.3 562.354 232.3 562.054 232.2 L 515.054 216.9 C 514.654 216.8 514.254 216.9 514.054 217.2 L 485.054 257.2 C 484.754 257.6 484.254 257.7 483.854 257.4 C 483.654 257.2 483.454 257 483.454 256.7 L 483.454 207.2 C 483.454 206.8 483.154 206.5 482.854 206.4 L 435.854 191.1 C 435.354 191 435.154 190.5 435.254 190 C 435.354 189.7 435.554 189.5 435.854 189.4 L 482.854 174.1 C 483.254 174 483.454 173.6 483.454 173.3 L 483.454 123.9 C 483.454 123.4 483.854 123 484.354 123 C 484.654 123.1 484.854 123.3 485.054 123.5" style="fill: rgb(255, 255, 255);"></path>
  </g>
</svg>

<?xml version="1.0" encoding="UTF-8"?>
<svg width="489.97" height="232.7" viewBox="73.254 123 489.97 232.7"
  xmlns="http://www.w3.org/2000/svg">
  <g fill="#fff">
    <path
      d="m107.25 248.7h68.1v-30h-102.1v137h34v-48.4h58.9v-29.6h-58.9v-29zm76.3-30v137h55.2c42.9 0 73.9-28.2 73.9-68.9 0-40.1-31-68.1-73.9-68.1h-55.2zm34 106.4v-75.8h21.1c22.1 0 39.3 16.3 39.3 37.5 0 21.8-17.1 38.3-39.3 38.3h-21.1zm249.9-106.4h-25.3l-48.5 73.1-48.8-73.1h-25.2v137h34l-0.2-69.1 30.6 47.3v0.2h18.9v-0.2l30.4-46.9v68.7h34l0.1-137z" />
    <path
      d="m485.05 123.5 29 40c0.2 0.3 0.6 0.4 1 0.3l47-15.3c0.5-0.2 1 0.1 1.1 0.6 0.1 0.3 0 0.6-0.1 0.8l-29 40c-0.2 0.3-0.2 0.7 0 1l29 40c0.3 0.4 0.2 1-0.2 1.2-0.2 0.2-0.5 0.2-0.8 0.1l-47-15.3c-0.4-0.1-0.8 0-1 0.3l-29 40c-0.3 0.4-0.8 0.5-1.2 0.2-0.2-0.2-0.4-0.4-0.4-0.7v-49.5c0-0.4-0.3-0.7-0.6-0.8l-47-15.3c-0.5-0.1-0.7-0.6-0.6-1.1 0.1-0.3 0.3-0.5 0.6-0.6l47-15.3c0.4-0.1 0.6-0.5 0.6-0.8v-49.4c0-0.5 0.4-0.9 0.9-0.9 0.3 0.1 0.5 0.3 0.7 0.5" />
  </g>
</svg>
